source/assets/images/icon-contrast-48x.svg

<svg fill="none" height="48" viewBox="0 0 48 48" width="48" xmlns="http://www.w3.org/2000/svg"><path clip-rule="evenodd" d="m0 6c0-3.31371 2.68628-6 6-6h36c3.3137 0 6 2.68629 6 6v36c0 3.3137-2.6863 6-6 6h-36c-3.31372 0-6-2.6863-6-6zm6-4h13.8917c1.7167 0 3.1083 1.39162 3.1083 3.10825 0 1.64236-1.2916 2.96923-2.8851 3.36673-6.9591 1.73592-12.1149 8.02832-12.1149 15.52502s5.1558 13.7891 12.1149 15.525c1.5935.3975 2.8851 1.7244 2.8851 3.3667 0 1.7167-1.3916 3.1083-3.1083 3.1083h-13.8917c-2.20923 0-4-1.7909-4-4v-36c0-2.20914 1.79077-4 4-4zm19 40.8917c0 1.7167 1.3916 3.1083 3.1083 3.1083h13.8917c2.2092 0 4-1.7909 4-4v-36c0-2.20914-1.7908-4-4-4h-13.8917c-1.7167 0-3.1083 1.39162-3.1083 3.10825 0 1.64236 1.2916 2.96923 2.8851 3.36673 3.7098.92537 6.9071 3.14562 9.084 6.15282.329.4545.1756 1.0853-.3055 1.374-.465.279-1.0663.1348-1.3882-.3018-2.5492-3.4573-6.6503-5.7-11.2754-5.7-7.7319 0-14 6.268-14 14s6.2681 14 14 14c6.6591 0 12.2322-4.6491 13.6508-10.8786l.0018-.0078c.2671-1.1767-.6233-2.1136-1.8299-2.1136h-7.5791c-.8476 0-1.5631.5914-2.1776 1.1753-.538.5111-1.2654.8247-2.066.8247-1.6569 0-3-1.3431-3-3s1.3431-3 3-3c.8814 0 1.6741.3801 2.2229.9854.479.5282 1.0831 1.0146 1.7961 1.0146 1.5358 0 2.732-1.4117 1.9162-2.7129-1.2376-1.9744-3.4331-3.2871-5.9352-3.2871-3.866 0-7 3.134-7 7s3.134 7 7 7c1.5108 0 2.9098-.4786 4.0537-1.2925.4517-.3214 1.0842-.3109 1.4642.0927.3769.4005.3624 1.0355-.0754 1.3684-1.5114 1.1492-3.3973 1.8314-5.4425 1.8314-4.9706 0-9-4.0294-9-9s4.0294-9 9-9c3.6956 0 6.871 2.2274 8.2568 5.413.6101 1.4024 1.8456 2.587 3.3749 2.587h.5765c2.1136 0 4.2044 1.5787 3.6773 3.6255-.1047.4066-.2319.8626-.3855 1.3745-1.5 5-4.6558 9.7891-11.6149 11.525-1.5935.3975-2.8851 1.7244-2.8851 3.3667z" fill="#000" fill-rule="evenodd"/></svg>

<svg width="48" height="48" viewBox="0 0 48 48" fill="none" xmlns="http://www.w3.org/2000/svg">
<path fill-rule="evenodd" clip-rule="evenodd" d="M0 6C0 2.68629 2.68628 0 6 0H42C45.3137 0 48 2.68629 48 6V42C48 45.3137 45.3137 48 42 48H6C2.68628 48 0 45.3137 0 42V6ZM6 2H19.8917C21.6084 2 23 3.39162 23 5.10825C23 6.75061 21.7084 8.07748 20.1149 8.47498C13.1558 10.2109 8 16.5033 8 24C8 31.4967 13.1558 37.7891 20.1149 39.525C21.7084 39.9225 23 41.2494 23 42.8917C23 44.6084 21.6084 46 19.8917 46H6C3.79077 46 2 44.2091 2 42V6C2 3.79086 3.79077 2 6 2ZM25 42.8917C25 44.6084 26.3916 46 28.1083 46H42C44.2092 46 46 44.2091 46 42V6C46 3.79086 44.2092 2 42 2H28.1083C26.3916 2 25 3.39162 25 5.10825C25 6.75061 26.2916 8.07748 27.8851 8.47498C31.5949 9.40035 34.7922 11.6206 36.9691 14.6278C37.2981 15.0823 37.1447 15.7131 36.6636 16.0018C36.1986 16.2808 35.5973 16.1366 35.2754 15.7C32.7262 12.2427 28.6251 10 24 10C16.2681 10 10 16.268 10 24C10 31.732 16.2681 38 24 38C30.6591 38 36.2322 33.3509 37.6508 27.1214L37.6526 27.1136C37.9197 25.9369 37.0293 25 35.8227 25H28.2436C27.396 25 26.6805 25.5914 26.066 26.1753C25.528 26.6864 24.8006 27 24 27C22.3431 27 21 25.6569 21 24C21 22.3431 22.3431 21 24 21C24.8814 21 25.6741 21.3801 26.2229 21.9854C26.7019 22.5136 27.306 23 28.019 23C29.5548 23 30.751 21.5883 29.9352 20.2871C28.6976 18.3127 26.5021 17 24 17C20.134 17 17 20.134 17 24C17 27.866 20.134 31 24 31C25.5108 31 26.9098 30.5214 28.0537 29.7075C28.5054 29.3861 29.1379 29.3966 29.5179 29.8002C29.8948 30.2007 29.8803 30.8357 29.4425 31.1686C27.9311 32.3178 26.0452 33 24 33C19.0294 33 15 28.9706 15 24C15 19.0294 19.0294 15 24 15C27.6956 15 30.871 17.2274 32.2568 20.413C32.8669 21.8154 34.1024 23 35.6317 23H36.2082C38.3218 23 40.4126 24.5787 39.8855 26.6255C39.7808 27.0321 39.6536 27.4881 39.5 28C38 33 34.8442 37.7891 27.8851 39.525C26.2916 39.9225 25 41.2494 25 42.8917Z" fill="black"/>
</svg>
